Adwaita++/actions/symbolic/link-symbolic.svg

<svg height="16" width="16" xmlns="http://www.w3.org/2000/svg">
  <path d="m5 3c-2.77 0-5 2.23-5 5s2.23 5 5 5h2v-2h-2c-1.66 0-3-1.33-3-3 0-1.66 1.34-3 3-3h2v-2zm4 0v2h2c1.66 0 3 1.34 3 3 0 1.67-1.34 3-3 3h-2v2h2c2.77 0 5-2.23 5-5s-2.23-5-5-5zm-4 4v2h6v-2z" fill="#444"/>
</svg>

<svg xmlns="http://www.w3.org/2000/svg" width="16" height="16" version="1.1">
 <path fill="#444" d="M 5,3 C 2.23,3 0,5.23 0,8 0,10.77 2.23,13 5,13 H 7 V 11 H 5 C 3.34,11 2,9.67 2,8 2,6.34 3.34,5 5,5 H 7 V 3 Z M 9,3 V 5 H 11 C 12.66,5 14,6.34 14,8 14,9.67 12.66,11 11,11 H 9 V 13 H 11 C 13.77,13 16,10.77 16,8 16,5.23 13.77,3 11,3 Z M 5,7 V 9 H 11 V 7 Z"/>
</svg>
